!!!!SEGMENT: Bnt2001-Ite_in_orbem.krn
!!!id: Bnt2001
!!!AGN: Motet
!!!voices: 4
!!!COM: Johannes Brunet
!!!OTL: Ite in orbem
**kern	**kern	**kern	**kern
*part4	*part3	*part2	*part1
*staff4	*staff3	*staff2	*staff1
*I"Bassus	*I"Tenor	*I"Altus	*I"Superius
*I'B	*I'T	*I'A	*I'S
*clefF4	*clefGv2	*clefGv2	*clefG2
*k[b-]	*k[b-]	*k[b-]	*k[b-]
*F:	*F:	*F:	*F:
*M2/1	*M2/1	*M2/1	*M2/1
*met(C|)	*met(C|)	*met(C|)	*met(C|)
!!section: Prima pars: Ite in orbem
!!!OMD: Prima pars: Ite in orbem
=1	=1	=1	=1
0r	0r	1.B-y	0r
.	.	2B-y	.
=2	=2	=2	=2
0r	0r	1B-y	1.f
.	.	1B-y	.
.	.	.	2f
=3	=3	=3	=3
1.F	1r	1.F	1f
.	[1c	.	1f
2F	.	2G	.
=4	=4	=4	=4
1F	2c]	2A	1.c
.	2c	2B-y	.
1F	1c	[1c	.
.	.	.	2d
=5	=5	=5	=5
1.C	1c	2c]	2e
.	.	2d	2f
.	1G	1e	[1g
2D	.	.	.
=6	=6	=6	=6
2E	1c	2c	2g]
2F	.	2f	2a
2.G	2B-y	4e	2.b-y
.	.	4d	.
.	[2d	[2g	.
4A	.	.	4cc
=7	=7	=7	=7
2B-y	4d]	4g]	4dd
.	4c	4f	4ee-i
2A	4B-y	1f	1dd
.	4A	.	.
1G	2.B-y	.	.
.	.	2e	4cc
.	4c	.	4b-y
=8	=8	=8	=8
[0F	2d	1f	0a
.	2.c	.	.
.	.	2r	.
.	4B-y	.	.
.	4A	2c	.
.	4G	.	.
=9	=9	=9	=9
0F]	1A	1d	2r
.	.	.	2f
.	2r	[1f	1a
.	2F	.	.
=10	=10	=10	=10
1r	1A	2f]	1cc
.	.	4e	.
.	.	4d	.
1C	1c	1e	4cc
.	.	.	4b-y
.	.	.	4a
.	.	.	4g
=11	=11	=11	=11
1D	2A	2d	1.f
.	2.B-y	2.f	.
[1F	.	.	.
.	4A	4e	.
.	[2A	2c	[2cc
=12	=12	=12	=12
2F]	4A]	2d	4cc]
.	4G	.	4b-y
2E	1G	1c	1a
1D	.	.	.
.	2F	2BnXi	4g
.	.	.	4f
=13	=13	=13	=13
0C	1G	0c	0e
.	2r	.	.
.	2c	.	.
=14	=14	=14	=14
2r	1c	0r	0r
2F	.	.	.
1F	1d	.	.
=15	=15	=15	=15
1G	2e	0r	0r
.	1d	.	.
1A	.	.	.
.	2c	.	.
=16	=16	=16	=16
2G	2B-y	1r	0r
1A	1c	.	.
.	.	2r	.
4G	4B-y	2c	.
4F	4A	.	.
=17	=17	=17	=17
2E	2G	1c	2r
2F	1A	.	2f
1D	.	1d	1f
.	4G	.	.
.	4F	.	.
=18	=18	=18	=18
1C	1c	1e	1g
1r	1r	2c	1a
.	.	2d	.
=19	=19	=19	=19
0r	0r	2B-y	2g
.	.	1c	1a
.	.	4B-y	4g
.	.	4A	4f
=20	=20	=20	=20
1r	0r	2G	2.e
.	.	1c	.
.	.	.	4f
2r	.	.	1d
2G	.	2BnXi	.
=21	=21	=21	=21
1A	2r	1c	1c
.	2c	.	.
2F	1d	1r	1r
[2G	.	.	.
=22	=22	=22	=22
4G]	2B-y	0r	0r
4F	.	.	.
4E	2.e-i	.	.
4D	.	.	.
2C	.	.	.
.	4d	.	.
2E	[2c	.	.
=23	=23	=23	=23
1D	2c]	0r	0r
.	2B-y	.	.
2C	2A	.	.
[2G	[2B-y	.	.
=24	=24	=24	=24
4G]	4B-]	1r	1r
4F	4A	.	.
1F	4G	.	.
.	4F	.	.
.	1G	2r	2r
2E	.	2G	2g
=25	=25	=25	=25
1F	2F	2.c	1a
.	2c	.	.
.	.	4B-y	.
2r	2d	2A	2f
[2C	[2e	2G	[2g
=26	=26	=26	=26
4C]	4e]	2.c	4g]
4D	4d	.	4f
2E	1c	.	4e
.	.	4B-y	4d
2F	.	2A	2c
2C	4B-y	[2G	2e
.	4A	.	.
=27	=27	=27	=27
2.G	1B-y	4G]	1d
.	.	4A	.
.	.	2B-y	.
4F	.	.	.
2E	2.c	2G	2c
4D	.	[2c	[2g
4C	4B-y	.	.
=28	=28	=28	=28
1D	2A	2c]	4g]
.	.	.	4f
.	4G	2BnXi	1f
.	4F	.	.
1C	1G	1c	.
.	.	.	2e
=29	=29	=29	=29
1.D	0F	1A	0f
.	.	1r	.
2BB-y	.	.	.
=30	=30	=30	=30
0BB-y	0r	1B-y	1r
.	.	[1d	1f
=31	=31	=31	=31
0r	0r	2d]	1.a
.	.	4c	.
.	.	4B-y	.
.	.	2c	.
.	.	2d	2f
=32	=32	=32	=32
0r	0r	2e	2g
.	.	2f	1a
.	.	2c	.
.	.	[2f	4g
.	.	.	4f
=33	=33	=33	=33
1r	0r	2f]	1g
.	.	2e	.
1BB-y	.	1f	[1f
=34	=34	=34	=34
1.D	1F	0r	1f]
.	[1A	.	1r
4C	.	.	.
4BB-y	.	.	.
=35	=35	=35	=35
2C	2A]	0r	0r
2D	2F	.	.
2E	2G	.	.
2F	[2A	.	.
=36	=36	=36	=36
2C	2A]	0r	0r
1F	4G	.	.
.	4F	.	.
.	1G	.	.
2E	.	.	.
=37	=37	=37	=37
0F	0F	2r	1r
.	.	2c	.
.	.	2c	2r
.	.	2c	2f
=38	=38	=38	=38
0r	1r	1d	2f
.	.	.	2f
.	2r	1c	1g
.	2c	.	.
=39	=39	=39	=39
1F	2c	2r	1f
.	2c	2f	.
2F	1d	2f	2r
2F	.	2f	2a
=40	=40	=40	=40
1F	1c	2c	2a
.	.	1f	2a
1G	1B-y	.	1b-y
.	.	2e	.
=41	=41	=41	=41
1F	1.c	1.f	1a
2r	.	.	2r
2F	2A	[2c	2a
=42	=42	=42	=42
2E	2B-y	4c]	2g
.	.	4d	.
2C	2c	2e	2.cc
[1F	2.F	2c	.
.	.	.	4b-y
.	.	4f	[2a
.	4G	4e	.
=43	=43	=43	=43
2F]	2A	4d	4a]
.	.	4c	4g
2E	1G	1c	2.b-y
1D	.	.	.
.	.	.	4a
.	2F	2BnXi	4g
.	.	.	4f
=44	=44	=44	=44
0C	1G	1c	0e
.	1r	2r	.
.	.	2A	.
=45	=45	=45	=45
0r	0r	2B-y	2r
.	.	2.c	2e
.	.	.	2f
.	.	4F	.
.	.	[2B-y	[2g
=46	=46	=46	=46
0r	0r	4B-]	4g]
.	.	4A	4c
.	.	4G	1f
.	.	4F	.
.	.	1G	.
.	.	.	2e
=47	=47	=47	=47
1r	2r	1F	1f
.	2A	.	.
2r	2B-y	1r	1r
2E	[2c	.	.
=48	=48	=48	=48
2F	4c]	0r	0r
.	4F	.	.
2.G	2.B-y	.	.
4C	4A	.	.
[2F	4G	.	.
.	4F	.	.
=49	=49	=49	=49
2F]	1G	1r	0r
2E	.	.	.
1F	1F	2.c	.
.	.	4B-y	.
=50	=50	=50	=50
2r	2.c	2A	1e
2C	.	2G	.
.	4B-y	.	.
2D	2A	2F	2f
2E	2G	[2c	[2g
=51	=51	=51	=51
2F	2A	2c]	4g]
.	.	.	4c
2D	2F	2B-y	1f
1C	1G	1c	.
.	.	.	2e
=52	=52	=52	=52
0F	[0F	1c	0f
.	.	2r	.
.	.	[2f	.
=53	=53	=53	=53
0r	1F]	2f]	1r
.	.	4e	.
.	.	4d	.
.	1r	2e	2r
.	.	[2f	[2cc
=54	=54	=54	=54
0r	0r	4f]	2cc]
.	.	4e	.
.	.	4d	4b-y
.	.	4c	4a
.	.	2d	2b-y
.	.	[2c	[2cc
=55	=55	=55	=55
0r	0r	4c]	4cc]
.	.	4d	4b-y
.	.	4e	4g
.	.	4f	4a
.	.	4g	4b-y
.	.	4e	4cc
.	.	[2f	[2dd
=56	=56	=56	=56
0r	0r	4f]	4dd]
.	.	4e	4cc
.	.	4d	1cc
.	.	4c	.
.	.	1d	.
.	.	.	2bnXi
=57	=57	=57	=57
2r	0r	[0c	[0cc
1F	.	.	.
4E	.	.	.
4D	.	.	.
=58	=58	=58	=58
2E	2r	1c]	1cc]
2.F	1c	.	.
.	.	1r	1r
4E	.	.	.
4D	4B-y	.	.
4C	4A	.	.
=59	=59	=59	=59
2D	2B-y	0r	0r
2.C	2.c	.	.
4D	4B-y	.	.
4E	4G	.	.
4F	4A	.	.
=60	=60	=60	=60
4G	4B-y	0r	0r
4E	4c	.	.
2.F	2.d	.	.
4E	4c	.	.
4D	[2c	.	.
4C	.	.	.
=61	=61	=61	=61
1D	2c]	2r	1f
.	2BnXi	2f	.
1C	1c	2e	2g
.	.	2c	[2a
=62	=62	=62	=62
1r	1r	1d	2a]
.	.	.	4g
.	.	.	4f
1C	2r	1c	1e
.	[2c	.	.
=63	=63	=63	=63
1F	2c]	2r	1a
.	4B-y	2c	.
.	4A	.	.
2G	2B-y	2e	2g
[2A	2c	2f	[2cc
=64	=64	=64	=64
4A]	2F	2c	4cc]
4G	.	.	4b-y
4F	2.c	2.f	4a
4E	.	.	4g
2F	.	.	2a
.	4A	4e	.
2G	2B-y	2d	[2g
=65	=65	=65	=65
2C	2c	2c	4g]
.	.	.	4f
2D	2F	2B-y	1f
1C	1G	1c	.
.	.	.	2e
=66	=66	=66	=66
2r	1F	1c	0f
2.F	.	.	.
.	2r	1f	.
4G	.	.	.
[2A	[2c	.	.
=67	=67	=67	=67
2A]	2c]	2e	1a
4G	4B-y	2c	.
4F	4A	.	.
2G	2B-y	2e	2g
[2A	2c	2f	[2cc
=68	=68	=68	=68
4A]	2F	2c	4cc]
4G	.	.	4b-y
4F	2.c	2.f	4a
4E	.	.	4g
2F	.	.	2a
.	4A	4e	.
2G	2B-y	2d	[2g
=69	=69	=69	=69
2C	2c	2c	4g]
.	.	.	4f
2D	2F	2B-y	1f
1C	1G	1c	.
.	.	.	2e
=70	=70	=70	=70
00FF	00F	00c	00f
=71||	=71||	=71||	=71||
*M2/1	*M2/1	*M2/1	*M2/1
*met(C|)	*met(C|)	*met(C|)	*met(C|)
!!section: Secunda pars: Signa autem
!!!OMD: Secunda pars: Signa autem
0r	0r	1c	1r
.	.	1d	1f
=72	=72	=72	=72
0r	0r	1c	1g
.	.	1r	1f
=73	=73	=73	=73
0r	0r	1c	1r
.	.	1d	1f
=74	=74	=74	=74
0r	0r	1c	1g
.	.	2A	1f
.	.	[2B-y	.
=75	=75	=75	=75
0r	0r	2B-]	1r
.	.	4A	.
.	.	4G	.
.	.	2A	1f
.	.	2B-y	.
=76	=76	=76	=76
0r	0r	4G	2.g
.	.	4A	.
.	.	4B-y	.
.	.	4c	4a
.	.	4d	2b-y
.	.	4e	.
.	.	[2f	[2a
=77	=77	=77	=77
0r	0r	2f]	2a]
.	.	4e	4g
.	.	4d	4f
.	.	2e	2g
.	.	[2f	2a
=78	=78	=78	=78
0r	0r	2f]	4d
.	.	.	4e
.	.	4e	4f
.	.	4d	4g
.	.	2.c	4a
.	.	.	4b-y
.	.	.	[2cc
.	.	4d	.
=79	=79	=79	=79
0r	0r	2e	4cc]
.	.	.	4b-y
.	.	2c	4a
.	.	.	4g
.	.	2.d	2b-y
.	.	.	[2a
.	.	4c	.
=80	=80	=80	=80
0r	0r	2B-y	4a]
.	.	.	4g
.	.	4A	1g
.	.	4G	.
.	.	1A	.
.	.	.	2f#i
=81	=81	=81	=81
2r	1B-y	1G	0g
2.GG	.	.	.
.	1B-y	1r	.
4AA	.	.	.
4BB-y	.	.	.
4C	.	.	.
=82	=82	=82	=82
4D	2.A	0r	0r
4E	.	.	.
4F	.	.	.
4D	4B-y	.	.
2E	2c	.	.
2F	[2d	.	.
=83	=83	=83	=83
2.G	2d]	0r	0r
.	4c	.	.
8FL	4B-y	.	.
8EJ	.	.	.
2F	2A	.	.
2G	[2d	.	.
=84	=84	=84	=84
4F	4d]	0r	0r
4E	4c	.	.
4D	1c	.	.
4C	.	.	.
1D	.	.	.
.	2BnXi	.	.
=85	=85	=85	=85
0C	1c	2r	2r
.	.	2G	1cc
.	2r	4A	.
.	.	4B-y	.
.	[2c	4c	4b-y
.	.	4d	4a
=86	=86	=86	=86
2r	2c]	2e	2g
2F	4B-y	2f	2a
.	4A	.	.
2G	2G	2e	2e
[2A	2F	2f	[2cc
=87	=87	=87	=87
2A]	2.A	1c	2cc]
4G	.	.	4b-y
4F	4B-y	.	4a
2E	[1c	2r	2g
2F	.	[2c	2a
=88	=88	=88	=88
1.C	0c_	2c]	1e
.	.	4B-y	.
.	.	4A	.
.	.	2G	2r
[2F	.	2A	[2a
=89	=89	=89	=89
2F]	1c]	4F	2a]
.	.	4G	.
4E	.	4A	4g
4D	.	4B-y	4f
2C	2r	2c	2e
2D	[2A	2F	2f
=90	=90	=90	=90
2AA	2A]	2.A	1c
1F	4G	.	.
.	4F	4B-y	.
.	1A	1c	1f
4E	.	.	.
4D	.	.	.
=91	=91	=91	=91
2E	2G	2r	2g
2F	1c	2F	1a
1D	.	2A	.
.	2F	2B-y	4g
.	.	.	4f
=92	=92	=92	=92
2C	2A	2c	2e
2BB-y	2B-y	2d	1f
1C	1G	1c	.
.	.	.	2e
=93	=93	=93	=93
*	*	*	*M3/1
*	*	*	*met(O/3)
0F	0F	1A	0f
.	.	1r	.
=94	=94	=94	=94
*M3/1	*M3/1	*M3/1	*
*met(O/3)	*met(O/3)	*met(O/3)	*
0.r	0.r	1F	1r
.	.	1G	1r
.	.	1F	1c
=95	=95	=95	=95
0.r	0.r	1.B-y	1.d
.	.	2A	2c
.	.	2B-y	2d
.	.	2c	2e
=96	=96	=96	=96
1r	1F	1.d	0f
1r	0G	.	.
.	.	2B-y	.
1C	.	1c	1e
=97	=97	=97	=97
1.D	1F	1A	1.f
.	1.B-y	1.d	.
2C	.	.	2e
2D	.	.	2f
2E	2G	2c	2g
=98	=98	=98	=98
1F	1A	1c	1c
1G	1B-y	1B-y	1.g
1C	1c	2G	.
.	.	2A	2f
=99	=99	=99	=99
1D	1F	1B-y	0f
0C	0G	0c	.
.	.	.	1e
=100	=100	=100	=100
0F	0F	0c	0f
1r	1r	1r	1r
=101	=101	=101	=101
1F	1A	1c	1f
1.F	1.c	1.f	1.a
2F	2c	2f	2a
=102	=102	=102	=102
0F	0c	0f	0a
1F	1c	1f	1a
=103	=103	=103	=103
1G	1B-y	2e	0b-y
.	.	2d	.
1.B-y	1.d	1.g	.
.	.	.	1g
2A	2c	2f	.
=104	=104	=104	=104
1F	0c	0f	1a
0G	.	.	1.b-y
.	1B-y	1e	.
.	.	.	4a
.	.	.	4g
=105	=105	=105	=105
*M2/1	*M2/1	*M2/1	*M2/1
*met(C|)	*met(C|)	*met(C|)	*met(C|)
0F	0c	1f	1a
.	.	2r	1r
.	.	2c	.
=106	=106	=106	=106
1r	0r	1d	1f
1C	.	1c	1g
=107	=107	=107	=107
1D	1F	2r	1f
.	.	2B-y	.
1C	1G	[1c	1r
=108	=108	=108	=108
1r	1F	2c]	1f
.	.	2d	.
1C	1c	1e	1g
=109	=109	=109	=109
1F	2.A	2f	1a
.	.	2d	.
.	4B-y	.	.
2E	4c	2e	2g
.	4B-y	.	.
[2F	4A	2c	[2a
.	4G	.	.
=110	=110	=110	=110
2F]	1F	1.c	2a]
4E	.	.	4g
4D	.	.	4f
4C	1G	.	1cc
4D	.	.	.
4E	.	4B-y	.
4F	.	4A	.
=111	=111	=111	=111
2G	2r	2G	2b-y
1A	2.F	1c	1cc
.	4G	.	.
4G	4A	2F	4b-y
4F	4B-y	.	4a
=112	=112	=112	=112
2E	2c	2G	2g
2F	2F	1c	2a
2C	2.c	.	2g
[2F	.	2F	[2a
.	4B-y	.	.
=113	=113	=113	=113
2F]	2A	2A	4a]
.	.	.	4g
4E	4G	2B-y	1f
4D	4F	.	.
1C	1G	1c	.
.	.	.	2e
=114	=114	=114	=114
1.D	0F	1A	0f
.	.	1r	.
2BB-y	.	.	.
=115	=115	=115	=115
0BB-y	0r	1B-y	1r
.	.	[1d	1f
=116	=116	=116	=116
0r	0r	2d]	1.a
.	.	4c	.
.	.	4B-y	.
.	.	2c	.
.	.	2d	2f
=117	=117	=117	=117
0r	0r	2e	2g
.	.	2f	1a
.	.	2c	.
.	.	[2f	4g
.	.	.	4f
=118	=118	=118	=118
1r	0r	2f]	1g
.	.	2e	.
1BB-y	.	1f	[1f
=119	=119	=119	=119
1.D	1F	0r	1f]
.	[1A	.	1r
4C	.	.	.
4BB-y	.	.	.
=120	=120	=120	=120
2C	2A]	0r	0r
2D	2F	.	.
2E	2G	.	.
2F	[2A	.	.
=121	=121	=121	=121
2C	2A]	0r	0r
1F	4G	.	.
.	4F	.	.
.	1G	.	.
2E	.	.	.
=122	=122	=122	=122
0F	0F	2r	1r
.	.	2c	.
.	.	2c	2r
.	.	2c	2f
=123	=123	=123	=123
0r	1r	1d	2f
.	.	.	2f
.	2r	1c	1g
.	2c	.	.
=124	=124	=124	=124
1F	2c	2r	1f
.	2c	2f	.
2F	1d	2f	2r
2F	.	2f	2a
=125	=125	=125	=125
1F	1c	2c	2a
.	.	1f	2a
1G	1B-y	.	1b-y
.	.	2e	.
=126	=126	=126	=126
1F	1.c	1.f	1a
2r	.	.	2r
2F	2A	[2c	2a
=127	=127	=127	=127
2E	2B-y	4c]	2g
.	.	4d	.
2C	2c	2e	2.cc
[1F	2.F	2c	.
.	.	.	4b-y
.	.	4f	[2a
.	4G	4e	.
=128	=128	=128	=128
2F]	2A	4d	4a]
.	.	4c	4g
2E	1G	1c	2.b-y
1D	.	.	.
.	.	.	4a
.	2F	2BnXi	4g
.	.	.	4f
=129	=129	=129	=129
0C	1G	1c	0e
.	1r	2r	.
.	.	2A	.
=130	=130	=130	=130
0r	0r	2B-y	2r
.	.	2.c	2e
.	.	.	2f
.	.	4F	.
.	.	[2B-y	[2g
=131	=131	=131	=131
0r	0r	4B-]	4g]
.	.	4A	4c
.	.	4G	1f
.	.	4F	.
.	.	1G	.
.	.	.	2e
=132	=132	=132	=132
1r	2r	1F	1f
.	2A	.	.
2r	2B-y	1r	1r
2E	[2c	.	.
=133	=133	=133	=133
2F	4c]	0r	0r
.	4F	.	.
2.G	2.B-y	.	.
4C	4A	.	.
[2F	4G	.	.
.	4F	.	.
=134	=134	=134	=134
2F]	1G	1r	0r
2E	.	.	.
1F	1F	2.c	.
.	.	4B-y	.
=135	=135	=135	=135
2r	2.c	2A	1e
2C	.	2G	.
.	4B-y	.	.
2D	2A	2F	2f
2E	2G	[2c	[2g
=136	=136	=136	=136
2F	2A	2c]	4g]
.	.	.	4c
2D	2F	2B-y	1f
1C	1G	1c	.
.	.	.	2e
=137	=137	=137	=137
0F	[0F	1c	0f
.	.	2r	.
.	.	[2f	.
=138	=138	=138	=138
0r	1F]	2f]	1r
.	.	4e	.
.	.	4d	.
.	1r	2e	2r
.	.	[2f	[2cc
=139	=139	=139	=139
0r	0r	4f]	2cc]
.	.	4e	.
.	.	4d	4b-y
.	.	4c	4a
.	.	2d	2b-y
.	.	[2c	[2cc
=140	=140	=140	=140
0r	0r	4c]	4cc]
.	.	4d	4b-y
.	.	4e	4g
.	.	4f	4a
.	.	4g	4b-y
.	.	4e	4cc
.	.	[2f	[2dd
=141	=141	=141	=141
0r	0r	4f]	4dd]
.	.	4e	4cc
.	.	4d	1cc
.	.	4c	.
.	.	1d	.
.	.	.	2bnXi
=142	=142	=142	=142
2r	0r	[0c	[0cc
1F	.	.	.
4E	.	.	.
4D	.	.	.
=143	=143	=143	=143
2E	2r	1c]	1cc]
2.F	1c	.	.
.	.	1r	1r
4E	.	.	.
4D	4B-y	.	.
4C	4A	.	.
=144	=144	=144	=144
2D	2B-y	0r	0r
2.C	2.c	.	.
4D	4B-y	.	.
4E	4G	.	.
4F	4A	.	.
=145	=145	=145	=145
4G	4B-y	0r	0r
4E	4c	.	.
2.F	2.d	.	.
4E	4c	.	.
2C	[2c	.	.
=146	=146	=146	=146
1D	2c]	2r	1f
.	2BnXi	2f	.
1C	1c	2e	2g
.	.	2c	[2a
=147	=147	=147	=147
1r	1r	1d	2a]
.	.	.	4g
.	.	.	4f
1C	2r	1c	1e
.	[2c	.	.
=148	=148	=148	=148
1F	2c]	2r	1a
.	4B-y	2c	.
.	4A	.	.
2G	2B-y	2e	2g
[2A	2c	2f	[2cc
=149	=149	=149	=149
4A]	2F	2c	4cc]
4G	.	.	4b-y
4F	2.c	2.f	4a
4E	.	.	4g
2F	.	.	2a
.	4A	4e	.
2G	2B-y	2d	[2g
=150	=150	=150	=150
2C	2c	2c	4g]
.	.	.	4f
2D	2F	2B-y	1f
1C	1G	1c	.
.	.	.	2e
=151	=151	=151	=151
2r	1F	1c	0f
2.F	.	.	.
.	2r	1f	.
4G	.	.	.
[2A	[2c	.	.
=152	=152	=152	=152
2A]	2c]	2e	1a
4G	4B-y	2c	.
4F	4A	.	.
2G	2B-y	2e	2g
[2A	2c	2f	[2cc
=153	=153	=153	=153
4A]	2F	2c	4cc]
4G	.	.	4b-y
4F	2.c	2.f	4a
4E	.	.	4g
2F	.	.	2a
.	4A	4e	.
2G	2B-y	2d	[2g
=154	=154	=154	=154
2C	2c	2c	4g]
.	.	.	4f
2D	2F	2B-y	1f
1C	1G	1c	.
.	.	.	2e
=155	=155	=155	=155
00FFl	00Fl	00cl	00fl
==	==	==	==
*-	*-	*-	*-
!!!system-decoration: [*]
!!!RDF**kern: i = editorial accidental
!!!RDF**kern: l = terminal long
!!!ENC: Benjamin Ory
!!!END: 2025/2/28
!!!EED: Benjamin Ory
!!!EEV: 2025/02/28
!!!YEC: Copyright 2025 Benjamin Ory, All Rights Reserved
!!!ONB: Translated from MusicXML on 2025/02/28